lib/preview/nrk-logo-preview-nrk-nyheter-with-bg.svg

<svg width="114" height="24" viewBox="0 0 114 24" fill="none" xmlns="http://www.w3.org/2000/svg">
<rect width="114" height="24" fill="#1767CE"/>
<path d="M6.00425 18V6.00109H9.94144V18H6.00425ZM15.2981 7.91078L17.5623 18H13.2534L10.5497 6.00109H12.9664C13.5206 5.9939 14.0583 6.18925 14.4788 6.55039C14.8999 6.89638 15.1892 7.3767 15.2981 7.91078ZM18.1538 18V6.00109H22.091V18H18.1538ZM25.0647 10.5641C24.6405 10.5682 24.223 10.4572 23.8568 10.243C23.4955 10.0341 23.1953 9.73396 22.9865 9.3726C22.772 9.00633 22.661 8.58876 22.6652 8.16432C22.6604 7.74246 22.7715 7.32738 22.9865 6.96443C23.1976 6.60699 23.4974 6.31009 23.8568 6.10252C24.2231 5.8885 24.6405 5.77751 25.0647 5.78138C25.4865 5.77684 25.9014 5.88793 26.2645 6.10252C26.6203 6.31191 26.9169 6.60856 27.1263 6.96443C27.3411 7.32748 27.4522 7.74249 27.4476 8.16432C27.4515 8.58873 27.3405 9.00623 27.1263 9.3726C26.9191 9.73238 26.6222 10.0323 26.2645 10.243C25.9013 10.458 25.4867 10.5691 25.0647 10.5641ZM28.0559 18V6.00109H31.9934V18H28.0559ZM36.978 12.5582C36.9891 12.5699 37.0735 12.7079 37.2314 12.9723C37.3893 13.2367 37.5949 13.5747 37.8482 13.9863C38.1017 14.3977 38.3691 14.8343 38.6506 15.296C38.932 15.7577 39.1969 16.1944 39.4451 16.6058C39.6923 17.0172 39.974 17.4819 40.29 18H35.9641C35.6935 17.5606 35.4484 17.1635 35.2287 16.8086C35.0091 16.4537 34.7755 16.0706 34.5281 15.6594C34.2801 15.2485 34.0348 14.8485 33.7925 14.4595C33.5501 14.0704 33.3418 13.7296 33.1675 13.4371C32.9925 13.1443 32.8713 12.9471 32.8039 12.8455C32.6368 12.5934 32.5379 12.3023 32.5169 12.0005C32.5337 11.7109 32.6269 11.431 32.787 11.1891C32.8546 11.0764 32.9785 10.8764 33.1588 10.5891C33.339 10.3018 33.5503 9.96105 33.7925 9.56672C34.0347 9.17239 34.2799 8.7696 34.5281 8.35837C34.7763 7.94715 35.0098 7.56124 35.2287 7.20071C35.4488 6.84055 35.6939 6.44059 35.9641 6.00081H40.29L36.9439 11.4595C36.8403 11.6216 36.782 11.8083 36.7749 12.0005C36.786 12.2023 36.8571 12.3963 36.978 12.5582Z" fill="white"/>
<path d="M53.5956 15.1276L46.376 5.98896H45V18.0008H46.5969V8.85715L53.8338 18.0008H55.2097V5.98896H53.5959L53.5956 15.1276Z" fill="#D4EEFC"/>
<path d="M63.6524 9.45721L63.6392 15.7931C63.5154 15.865 63.392 15.934 63.2711 15.9961C63.0647 16.1019 62.8519 16.195 62.6341 16.2749C62.4277 16.3517 62.2144 16.4083 61.997 16.4441C61.7752 16.4789 61.5509 16.4959 61.3263 16.4949C60.9787 16.5088 60.6334 16.4329 60.324 16.2747C60.0558 16.1198 59.849 15.8781 59.738 15.5898C59.5971 15.2199 59.5305 14.826 59.5423 14.4306V9.20288L57.8096 9.45662V14.7686C57.7889 15.41 57.8988 16.0489 58.1326 16.6468C58.3203 17.113 58.6659 17.4991 59.1095 17.7381C59.6134 17.9844 60.1705 18.1034 60.7315 18.0846C61.2 18.0878 61.6655 18.0106 62.1077 17.8565C62.5439 17.7011 62.9557 17.4845 63.3305 17.2133C63.4339 17.1392 63.5361 17.0605 63.638 16.9787L63.6363 17.7119C63.6363 18.5578 63.4381 19.2007 63.0417 19.6405C62.6454 20.0804 61.9716 20.3003 61.0203 20.3003C60.7596 20.3003 60.4935 20.289 60.2219 20.2662C59.9506 20.2439 59.6811 20.2044 59.4149 20.1481C59.1488 20.0917 58.8797 20.0212 58.6077 19.9366C58.3357 19.852 58.064 19.7533 57.7924 19.6405L57.9795 21.1462C58.206 21.2361 58.4437 21.3179 58.6927 21.3915C58.9416 21.4652 59.1964 21.5273 59.4571 21.5777C59.7176 21.6284 59.9894 21.6679 60.2725 21.6961C60.5556 21.7243 60.8445 21.7383 61.1392 21.7381C61.7537 21.7484 62.3654 21.6541 62.948 21.4592C63.4411 21.2928 63.8949 21.0279 64.2815 20.6807C64.6426 20.3499 64.9244 19.9423 65.1057 19.4883C65.2978 18.9978 65.393 18.4751 65.386 17.9487L65.3687 9.20174L63.6524 9.45721Z" fill="#D4EEFC"/>
<path d="M74.5578 9.54152C74.0587 9.28902 73.5035 9.16686 72.944 9.18652C72.4454 9.18642 71.9497 9.2634 71.4748 9.41465C70.9922 9.56745 70.5323 9.78375 70.1071 10.0578C69.9791 10.1399 69.8554 10.227 69.7334 10.3198V5.22769L68.0006 5.48147V18.0009H69.7334V11.4998C69.8676 11.4265 70.0052 11.3566 70.1493 11.2929C70.3897 11.1872 70.6366 11.0967 70.8885 11.0221C71.1311 10.9504 71.3778 10.8939 71.6275 10.853C71.8605 10.8143 72.0962 10.7945 72.3324 10.7938C72.604 10.788 72.8745 10.831 73.1309 10.9206C73.347 10.9984 73.5399 11.1294 73.6917 11.3013C73.8476 11.4879 73.9578 11.708 74.0139 11.9442C74.0868 12.2431 74.1213 12.55 74.1164 12.8575V18.0006H75.8489V12.5022C75.8715 11.8608 75.7615 11.2216 75.5258 10.6243C75.334 10.1656 74.9931 9.78428 74.5578 9.54152Z" fill="#D4EEFC"/>
<path d="M85.0053 10.4639C84.6791 10.0429 84.2488 9.71347 83.7565 9.50771C83.2096 9.28559 82.6231 9.17632 82.0325 9.18653C81.4374 9.17642 80.847 9.29175 80.2998 9.52492C79.8021 9.74187 79.3584 10.0652 79.0003 10.4721C78.6313 10.8997 78.3538 11.3977 78.1846 11.9357C77.991 12.5515 77.8965 13.1939 77.9046 13.839C77.8805 14.6542 78.0522 15.4634 78.4054 16.1991C78.7283 16.8367 79.2498 17.3531 79.8918 17.671C80.6452 18.0245 81.4719 18.1955 82.3043 18.1701C82.7047 18.1734 83.1049 18.1479 83.5016 18.094C83.8333 18.0463 84.1602 17.9699 84.4785 17.8656C84.7941 17.76 85.1009 17.6299 85.396 17.4764L85.5147 16.1737C85.2995 16.2527 85.0815 16.3316 84.8606 16.4106C84.6398 16.4895 84.4105 16.56 84.1727 16.6221C83.9328 16.6847 83.6886 16.7298 83.4422 16.7571C83.194 16.7855 82.9445 16.7997 82.6948 16.7997C82.2488 16.8069 81.8037 16.7586 81.3698 16.6559C81.0197 16.5725 80.6958 16.4039 80.4272 16.1653C80.1557 15.9079 79.9566 15.5842 79.8496 15.2263C79.7387 14.8639 79.6763 14.4885 79.6642 14.1097H85.8034C85.887 13.41 85.8554 12.7013 85.71 12.0116C85.5905 11.4509 85.3501 10.9228 85.0053 10.4639ZM80.7245 10.8696C81.1231 10.6287 81.5833 10.5083 82.0492 10.5231C82.5158 10.4998 82.9766 10.634 83.3572 10.9037C83.6956 11.1726 83.9371 11.5437 84.0453 11.9611C84.13 12.2698 84.1717 12.5886 84.1693 12.9085H79.7016C79.7331 12.5712 79.8055 12.2389 79.9173 11.9188C80.0624 11.4898 80.3463 11.1208 80.7245 10.8696Z" fill="#D4EEFC"/>
<path d="M92.4033 16.6387L92.1145 16.6897C92.0218 16.7062 91.9282 16.7175 91.8342 16.7236C91.7434 16.7295 91.6584 16.7317 91.5794 16.7317C91.319 16.7389 91.0605 16.6868 90.8235 16.5794C90.6196 16.4834 90.4505 16.3269 90.3393 16.1314C90.2203 15.9107 90.1617 15.6628 90.1694 15.4124V10.7261H92.5646L92.7515 9.3726H90.1694V6.69926L88.4368 7.3086V9.3726H87.1287L86.9416 10.7261H88.4368V15.7677C88.429 16.1039 88.4808 16.4388 88.5897 16.7571C88.677 17.0091 88.8126 17.2419 88.9888 17.4426C89.1505 17.6212 89.347 17.7651 89.5664 17.8655C89.7911 17.9681 90.0279 18.0419 90.2711 18.0852C90.5121 18.1295 90.7565 18.1522 91.0015 18.1529C91.1827 18.1529 91.3612 18.1473 91.5369 18.1362C91.7127 18.1251 91.874 18.1081 92.0211 18.0852C92.168 18.0626 92.307 18.0372 92.4373 18.0093C92.5675 17.9814 92.6777 17.9557 92.7686 17.9329L92.8704 16.529C92.8043 16.5544 92.7361 16.5742 92.6666 16.5882C92.587 16.6048 92.4993 16.622 92.4033 16.6387Z" fill="#D4EEFC"/>
<path d="M100.973 10.4639C100.647 10.043 100.217 9.71351 99.7248 9.50771C99.1778 9.28559 98.5913 9.17632 98.0007 9.18653C97.4056 9.1765 96.8151 9.29183 96.2679 9.52492C95.7703 9.74194 95.3266 10.0653 94.9684 10.4721C94.5995 10.8996 94.3221 11.3975 94.153 11.9355C93.9594 12.5512 93.8649 13.1936 93.873 13.8387C93.849 14.6539 94.0207 15.463 94.3739 16.1988C94.6967 16.8364 95.2182 17.3528 95.8603 17.6707C96.6137 18.0241 97.4403 18.1951 98.2727 18.1698C98.6732 18.1731 99.0733 18.1476 99.4701 18.0937C99.8018 18.046 100.129 17.9696 100.447 17.8653C100.763 17.7598 101.069 17.6297 101.364 17.4762L101.483 16.1735C101.268 16.2524 101.05 16.3314 100.829 16.4103C100.608 16.4893 100.379 16.5598 100.141 16.6218C99.9014 16.6844 99.6574 16.7295 99.4109 16.7568C99.1628 16.7852 98.9132 16.7994 98.6634 16.7994C98.2174 16.8066 97.7722 16.7583 97.3381 16.6556C96.9881 16.5721 96.6643 16.4035 96.3956 16.165C96.1242 15.9075 95.9252 15.5838 95.8181 15.2261C95.7071 14.8636 95.6448 14.4882 95.6329 14.1095H101.772C101.856 13.4097 101.824 12.701 101.678 12.0113C101.559 11.4507 101.318 10.9227 100.973 10.4639ZM96.6926 10.8696C97.0913 10.6287 97.5516 10.5083 98.0176 10.5231C98.4842 10.4999 98.945 10.634 99.3257 10.9038C99.6639 11.1727 99.9053 11.5438 100.013 11.9611C100.098 12.2697 100.14 12.5886 100.137 12.9085H95.67C95.7015 12.5712 95.7738 12.2389 95.8854 11.9188C96.0306 11.4898 96.3145 11.1208 96.6926 10.8696Z" fill="#D4EEFC"/>
<path d="M107.445 9.31315C107.127 9.39794 106.824 9.52907 106.545 9.70227C106.255 9.88238 105.987 10.0953 105.746 10.3367C105.706 10.3765 105.667 10.4213 105.627 10.4633V9.20291L103.895 9.45665V18.0003H105.627V11.6089C105.756 11.5194 105.89 11.4364 106.027 11.3603C106.197 11.2671 106.373 11.1851 106.554 11.1149C106.729 11.0469 106.907 10.9877 107.089 10.9373C107.275 10.8855 107.465 10.8487 107.657 10.8273C107.863 10.8046 108.071 10.7988 108.278 10.8101L108.482 9.22008C108.133 9.19517 107.783 9.22661 107.445 9.31315Z" fill="#D4EEFC"/>
</svg>

<svg xmlns="http://www.w3.org/2000/svg" viewBox="0 0 114 24"><path fill="#1767CE" d="M0 0h114v24H0z"/><path fill="#fff" d="M6.004 18V6.001h3.937V18H6.004Zm9.294-10.09L17.562 18h-4.309L10.55 6.001h2.416a2.276 2.276 0 0 1 1.513.55c.42.345.71.826.82 1.36ZM18.154 18V6.001h3.937V18h-3.937Zm6.91-7.436a2.382 2.382 0 0 1-2.4-2.4 2.303 2.303 0 0 1 .323-1.2 2.411 2.411 0 0 1 3.278-.861c.355.209.652.506.861.861.215.363.326.778.322 1.2a2.4 2.4 0 0 1-1.183 2.079 2.3 2.3 0 0 1-1.2.321ZM28.057 18V6.001h3.937V18h-3.937Zm8.922-5.442c.011.012.096.15.253.414.158.265.364.603.617 1.014a327.152 327.152 0 0 1 1.597 2.62c.247.411.529.876.845 1.394h-4.326c-.27-.44-.516-.837-.735-1.191-.22-.355-.453-.738-.7-1.15-.249-.41-.494-.81-.737-1.2-.242-.389-.45-.73-.625-1.022-.175-.293-.296-.49-.363-.591a1.75 1.75 0 0 1-.287-.845c.017-.29.11-.57.27-.812.068-.113.191-.313.372-.6a182.106 182.106 0 0 0 1.37-2.23c.247-.412.48-.798.7-1.158l.735-1.2h4.326l-3.346 5.458a1.078 1.078 0 0 0-.17.542c.012.201.083.395.204.557Z"/><path fill="#D4EEFC" d="m53.596 15.128-7.22-9.139H45v12.012h1.597V8.857l7.237 9.144h1.376V5.989h-1.614v9.139ZM63.652 9.457l-.013 6.336c-.124.072-.247.141-.368.203a5.7 5.7 0 0 1-.637.279 3.42 3.42 0 0 1-.637.17 4.206 4.206 0 0 1-.67.05 2.024 2.024 0 0 1-1.003-.22 1.352 1.352 0 0 1-.586-.685 3.005 3.005 0 0 1-.196-1.16V9.204l-1.732.254v5.312c-.021.641.089 1.28.323 1.878.187.466.533.852.976 1.091a3.432 3.432 0 0 0 1.622.347c.469.003.934-.074 1.377-.229a4.88 4.88 0 0 0 1.223-.643c.103-.074.205-.152.307-.234l-.002.733c0 .846-.198 1.489-.594 1.928-.397.44-1.07.66-2.022.66-.26 0-.527-.011-.798-.034a6.456 6.456 0 0 1-.807-.118 9.005 9.005 0 0 1-1.623-.508l.188 1.506a8.343 8.343 0 0 0 2.293.55c.283.028.571.042.866.042a5.415 5.415 0 0 0 1.809-.279 3.827 3.827 0 0 0 1.333-.778c.362-.331.643-.739.825-1.193.192-.49.287-1.013.28-1.54l-.017-8.746-1.717.255ZM74.558 9.542a3.317 3.317 0 0 0-1.614-.355c-.499 0-.994.076-1.47.228a5.701 5.701 0 0 0-1.74.905V5.228L68 5.48v12.52h1.732V11.5a5.533 5.533 0 0 1 1.155-.478c.243-.072.49-.128.74-.169.233-.039.468-.059.704-.06.272-.005.543.038.799.128.216.077.409.208.56.38.157.187.267.407.323.643.073.3.107.606.102.913v5.144h1.733v-5.499a4.668 4.668 0 0 0-.323-1.878 2.222 2.222 0 0 0-.968-1.082ZM85.005 10.464a3.084 3.084 0 0 0-1.248-.956 4.38 4.38 0 0 0-1.725-.321 4.237 4.237 0 0 0-1.732.338 3.7 3.7 0 0 0-1.3.947 4.142 4.142 0 0 0-.815 1.464 6.091 6.091 0 0 0-.28 1.903 5.104 5.104 0 0 0 .5 2.36 3.314 3.314 0 0 0 1.487 1.472 5.3 5.3 0 0 0 2.412.5c.4.002.8-.023 1.198-.077a5.779 5.779 0 0 0 1.894-.618l.119-1.302a83.11 83.11 0 0 1-.654.237c-.221.078-.45.149-.688.211-.24.063-.484.108-.73.135a6.574 6.574 0 0 1-.748.043 5.376 5.376 0 0 1-1.325-.144 2.18 2.18 0 0 1-.943-.49 2.138 2.138 0 0 1-.577-.94 4.283 4.283 0 0 1-.186-1.116h6.14c.083-.7.051-1.409-.094-2.098a3.946 3.946 0 0 0-.705-1.548Zm-4.28.406c.398-.241.858-.362 1.324-.347.467-.023.928.111 1.308.38.339.27.58.64.688 1.058.085.309.127.628.124.947h-4.467a4.18 4.18 0 0 1 .215-.99c.145-.428.43-.797.808-1.048ZM92.403 16.639l-.288.05a2.537 2.537 0 0 1-.28.035 3.92 3.92 0 0 1-.256.008 1.716 1.716 0 0 1-.755-.153 1.092 1.092 0 0 1-.485-.448 1.423 1.423 0 0 1-.17-.719v-4.686h2.396l.186-1.353H90.17V6.699l-1.732.61v2.064h-1.308l-.187 1.353h1.495v5.042c-.008.336.044.67.153.99.087.251.223.484.399.685.161.178.358.322.577.422.225.103.462.177.705.22.241.044.486.067.73.068.182 0 .36-.006.536-.017.176-.01.337-.028.484-.05a7.279 7.279 0 0 0 .748-.153l.101-1.404a1.264 1.264 0 0 1-.203.06c-.08.016-.168.033-.264.05ZM100.973 10.464a3.083 3.083 0 0 0-1.248-.956A4.381 4.381 0 0 0 98 9.187a4.24 4.24 0 0 0-1.733.338c-.498.217-.941.54-1.3.947a4.14 4.14 0 0 0-.815 1.463 6.09 6.09 0 0 0-.28 1.904 5.106 5.106 0 0 0 .5 2.36 3.313 3.313 0 0 0 1.487 1.472c.754.353 1.58.524 2.413.499.4.003.8-.022 1.197-.076a5.772 5.772 0 0 0 1.894-.618l.119-1.302-.654.236c-.221.08-.45.15-.688.212-.24.062-.484.108-.73.135a6.573 6.573 0 0 1-.748.042 5.38 5.38 0 0 1-1.325-.143 2.183 2.183 0 0 1-.942-.491 2.14 2.14 0 0 1-.578-.939 4.271 4.271 0 0 1-.185-1.117h6.139a6.43 6.43 0 0 0-.094-2.098 3.935 3.935 0 0 0-.705-1.547Zm-4.28.406c.398-.241.859-.362 1.325-.347.466-.023.927.111 1.308.38.338.27.58.64.687 1.058.085.309.127.628.124.947H95.67a4.19 4.19 0 0 1 .215-.99c.146-.428.43-.797.808-1.048ZM107.445 9.313a3.335 3.335 0 0 0-.9.39c-.29.18-.558.392-.799.634-.04.04-.079.084-.119.126v-1.26l-1.732.254V18h1.732V11.61a4.424 4.424 0 0 1 .927-.494c.175-.068.353-.127.535-.178a3.607 3.607 0 0 1 1.189-.127l.204-1.59a3.248 3.248 0 0 0-1.037.093Z"/></svg>
